Origami/22x22/apps/rochard.svg

<svg width="22" height="22" version="1" xmlns="http://www.w3.org/2000/svg">
 <rect transform="matrix(0,-1,-1,0,0,0)" x="-21" y="-21" width="20" height="20" rx="1" ry="1" style="fill:#4f4f4f"/>
 <path d="m15 3.5c-3.027301 0-5.318083 1.4749328-6.8007812 3.4492188-1.4826989 1.9742859-2.1992188 4.4355702-2.1992188 6.5507812v6h1 4v-1-5c0-0.916667 0.242183-2.223892 0.863281-3.240234 0.621098-1.016343 1.553386-1.759766 3.136719-1.759766v-1-1-1-1-1zm-1 1.0625v1.0292969c-3.352716 0.5566067-6 3.8505931-6 7.9082031v5h-1v-5c0-1.884788 0.6664297-4.173505 2-5.9492188 1.163294-1.5489833 2.803148-2.7152583 5-2.9882812zm0 2.0429688v1.0039062c-1.380316 0.2826387-2.374456 1.1264179-2.988281 2.130859-0.753902 1.233658-1.011719 2.676433-1.011719 3.759766v5h-1v-5c0-3.557273 2.247331-6.3415311 5-6.8945312z" style="opacity:.2"/>
 <path d="m2 1c-0.554 0-1 0.446-1 1v0.5c0-0.554 0.446-1 1-1h18c0.554 0 1 0.446 1 1v-0.5c0-0.554-0.446-1-1-1h-18z" style="fill:#ffffff;opacity:.1"/>
 <path d="m2 21.5c-0.554 0-1-0.446-1-1v-0.5c0 0.554 0.446 1 1 1h18c0.554 0 1-0.446 1-1v0.5c0 0.554-0.446 1-1 1h-18z" style="opacity:.2"/>
 <rect x="6" y="18" width="5" height="1" style="fill:#ffba40"/>
 <rect transform="rotate(90)" x="4" y="-15" width="4" height="1" style="fill:#ffba40"/>
 <path d="m6.5 19v-6c0-4 2.765076-9.5 8.5-9.5" style="fill:none;stroke:#ffba40"/>
 <path d="m8.5 19v-6c0-4.2175685 3-7.5 6.5-7.5" style="fill:none;stroke:#ffba40"/>
 <path d="m10.5 19v-6c0-2 1-5.5 4.5-5.5" style="fill:none;stroke:#ffba40"/>
</svg>

<svg xmlns="http://www.w3.org/2000/svg" width="22" height="22" version="1">
 <rect style="fill:#4f4f4f" width="20" height="20" x="-21" y="-21" rx="1" ry="1" transform="matrix(0,-1,-1,0,0,0)"/>
 <path style="opacity:0.2" d="M 15,3.5 C 11.972699,3.5 9.681917,4.9749328 8.1992188,6.9492188 6.7165199,8.9235047 6,11.384789 6,13.5 l 0,6 1,0 4,0 0,-1 0,-5 c 0,-0.916667 0.242183,-2.223892 0.863281,-3.240234 C 12.484379,9.243423 13.416667,8.5 15,8.5 l 0,-1 0,-1 0,-1 0,-1 0,-1 z m -1,1.0625 0,1.0292969 C 10.647284,6.1484036 8,9.44239 8,13.5 l 0,5 -1,0 0,-5 C 7,11.615212 7.6664297,9.326495 9,7.5507812 10.163294,6.0017979 11.803148,4.8355229 14,4.5625 Z m 0,2.0429688 0,1.0039062 C 12.619684,7.8920137 11.625544,8.7357929 11.011719,9.740234 10.257817,10.973892 10,12.416667 10,13.5 l 0,5 -1,0 0,-5 C 9,9.942727 11.247331,7.1584689 14,6.6054688 Z"/>
 <path style="opacity:0.1;fill:#ffffff" d="M 2,1 C 1.446,1 1,1.446 1,2 l 0,0.5 c 0,-0.554 0.446,-1 1,-1 l 18,0 c 0.554,0 1,0.446 1,1 L 21,2 C 21,1.446 20.554,1 20,1 L 2,1 Z"/>
 <path style="opacity:0.2" d="m 2,21.5 c -0.554,0 -1,-0.446 -1,-1 L 1,20 c 0,0.554 0.446,1 1,1 l 18,0 c 0.554,0 1,-0.446 1,-1 l 0,0.5 c 0,0.554 -0.446,1 -1,1 l -18,0 z"/>
 <rect style="fill:#ffba40" width="5" height="1" x="6" y="18"/>
 <rect style="fill:#ffba40" width="4" height="1" x="4" y="-15" transform="matrix(0,1,-1,0,0,0)"/>
 <path style="fill:none;stroke:#ffba40" d="m 6.5,19 0,-6 C 6.5,9 9.265076,3.5 15,3.5 l 0,0"/>
 <path style="fill:none;stroke:#ffba40" d="m 8.5,19 0,-6 c 0,-4.2175685 3,-7.5 6.5,-7.5 l 0,0"/>
 <path style="fill:none;stroke:#ffba40" d="m 10.5,19 0,-6 c 0,-2 1,-5.5 4.5,-5.5 l 0,0"/>
</svg>
